X: 1
T: THE OLD DUTCH CHURN -- JIG
B: Ryan's Mammoth Collection of Fiddle Tunes
R: jig
M: 9/8
L: 1/8
Z: Contributed 20000913183230 by John Chambers John.Chambers:weema.com
K: Gm
(vB2.d) (G2.d) dcB | (uA2.c) (F2.c) cBA | (B2.d) (G2.d) "SEGUE"dcB | dfd cBA G3 \
| B2d G2d dcB | A2c F2c cBA | B2d G2d dcB | dfd cBA G3 |]
(vb2.g) (b2.g) gfd | (ua2.f) "SEGUE"fgf agf | b2g b2g gfd | fdB Bdf  g3 \
| b2g b2g gfd | a2f fgf agf | b2g a2^f g=fd | dfd cBA G3 |]


